symbols/web/masks/materialsymbolsrounded/masks_wght300fill1_24px.svg

<svg xmlns="http://www.w3.org/2000/svg" height="24" width="24"><path d="M12 17.55q-.875 0-1.7-.25t-1.55-.725q-1.025-.05-2.1-.425-1.075-.375-1.95-1.238-.875-.862-1.45-2.262t-.575-3.475V8.7q0-.95.663-1.6.662-.65 1.587-.65.875 0 1.525.637.65.638.725 1.563.7-.2 1.212-.462.513-.263 1.013-.513.6-.325 1.2-.538.6-.212 1.4-.212.8 0 1.4.212.6.213 1.2.538.475.25 1 .513.525.262 1.225.462.075-.95.725-1.575t1.525-.625q.925 0 1.588.65.662.65.662 1.6v.475q0 2.075-.575 3.475t-1.45 2.262q-.875.863-1.95 1.238t-2.1.425q-.725.475-1.55.725-.825.25-1.7.25Zm-4.85-2.5q-.525-.725-.838-1.625-.312-.9-.312-1.9V8.7q0-.45-.312-.75-.313-.3-.763-.3-.425 0-.737.3-.313.3-.313.75v.475q0 2.825 1.025 4.1 1.025 1.275 2.25 1.775Zm9.7 0q1.225-.475 2.25-1.763Q20.125 12 20.125 9.175V8.7q0-.45-.313-.75-.312-.3-.737-.3-.45 0-.763.3-.312.3-.312.75v2.825q0 1-.3 1.913-.3.912-.85 1.612Zm-7.025-4.025q.25-.1.487-.225.238-.125.438-.25.325-.2.613-.338.287-.137.637-.137.375 0 .637.137.263.138.613.338.2.125.425.25.225.125.5.25.25.1.438-.038.187-.137.187-.412 0-.125-.062-.225-.063-.1-.188-.15-.25-.1-.462-.2-.213-.1-.413-.225-.375-.25-.75-.425T12 9.2q-.55 0-.938.175-.387.175-.762.425-.2.125-.4.212-.2.088-.45.213-.125.05-.187.162-.063.113-.063.213 0 .3.188.412.187.113.437.013Z"/></svg>

<svg xmlns="http://www.w3.org/2000/svg" height="24" width="24"><path d="M12 17.55Q11.125 17.55 10.3 17.3Q9.475 17.05 8.75 16.575Q7.725 16.525 6.65 16.15Q5.575 15.775 4.7 14.912Q3.825 14.05 3.25 12.65Q2.675 11.25 2.675 9.175V8.7Q2.675 7.75 3.338 7.1Q4 6.45 4.925 6.45Q5.8 6.45 6.45 7.087Q7.1 7.725 7.175 8.65Q7.875 8.45 8.387 8.188Q8.9 7.925 9.4 7.675Q10 7.35 10.6 7.137Q11.2 6.925 12 6.925Q12.8 6.925 13.4 7.137Q14 7.35 14.6 7.675Q15.075 7.925 15.6 8.188Q16.125 8.45 16.825 8.65Q16.9 7.7 17.55 7.075Q18.2 6.45 19.075 6.45Q20 6.45 20.663 7.1Q21.325 7.75 21.325 8.7V9.175Q21.325 11.25 20.75 12.65Q20.175 14.05 19.3 14.912Q18.425 15.775 17.35 16.15Q16.275 16.525 15.25 16.575Q14.525 17.05 13.7 17.3Q12.875 17.55 12 17.55ZM7.15 15.05Q6.625 14.325 6.312 13.425Q6 12.525 6 11.525V8.7Q6 8.25 5.688 7.95Q5.375 7.65 4.925 7.65Q4.5 7.65 4.188 7.95Q3.875 8.25 3.875 8.7V9.175Q3.875 12 4.9 13.275Q5.925 14.55 7.15 15.05ZM16.85 15.05Q18.075 14.575 19.1 13.287Q20.125 12 20.125 9.175V8.7Q20.125 8.25 19.812 7.95Q19.5 7.65 19.075 7.65Q18.625 7.65 18.312 7.95Q18 8.25 18 8.7V11.525Q18 12.525 17.7 13.438Q17.4 14.35 16.85 15.05ZM9.825 11.025Q10.075 10.925 10.312 10.8Q10.55 10.675 10.75 10.55Q11.075 10.35 11.363 10.212Q11.65 10.075 12 10.075Q12.375 10.075 12.637 10.212Q12.9 10.35 13.25 10.55Q13.45 10.675 13.675 10.8Q13.9 10.925 14.175 11.05Q14.425 11.15 14.613 11.012Q14.8 10.875 14.8 10.6Q14.8 10.475 14.738 10.375Q14.675 10.275 14.55 10.225Q14.3 10.125 14.088 10.025Q13.875 9.925 13.675 9.8Q13.3 9.55 12.925 9.375Q12.55 9.2 12 9.2Q11.45 9.2 11.062 9.375Q10.675 9.55 10.3 9.8Q10.1 9.925 9.9 10.012Q9.7 10.1 9.45 10.225Q9.325 10.275 9.263 10.387Q9.2 10.5 9.2 10.6Q9.2 10.9 9.388 11.012Q9.575 11.125 9.825 11.025Z"/></svg>
